16x16/actions/archive-extract.svg

<svg viewBox="0 0 16 16" xmlns="http://www.w3.org/2000/svg"><g fill="#8b9cbe"><path d="m2 2v12h7v-1h-6v-10h5v1h1v-1h4v5h1v-6zm6 2h-1v1h1zm0 1v1h1v-1zm0 1h-1v2h2v-1h-1z"/><path d="m11.5 8-2.5 2.5.707.707 1.293-1.293v4.086h1v-4.086l1.293 1.293.707-.707z"/></g></svg>

<svg viewBox="0 0 16 16" xmlns="http://www.w3.org/2000/svg"><g style="fill:currentColor;fill-opacity:1;stroke:none;color:#8b9cbe"><path d="M2 2v12h7v-1H3V3h5v1h1V3h4v5h1V2zm6 2H7v1h1zm0 1v1h1V5zm0 1H7v2h2V7H8z"/><path d="M11.5 8 9 10.5l.707.707L11 9.914V14h1V9.914l1.293 1.293L14 10.5z"/></g></svg>
